X:1604
T:Dorset 4 hand reel (2)
O:england
R:Reel
M:4/4
K:A
A2ce aecA|d2f2 d2f2|A2ce aecA|G2B2 G2B2|\
A2ce aecA|d2f2 d2f2|efgf edcB\
|1 A2a2 a4 :|2 A2a2 a2 |:\
cd|\
e2c2 e2c2|f2d2 f2d2|e2c2 e2c2|B2e2 e2cd|\
e2c2 e2c2|f2d2 f2d2|efgf edcB\
|1 A2a2 a2:|2 A2a2 a4||
